evclide/img/Frame-cube.svg

<svg width="190" height="165" viewBox="0 0 190 165" fill="none" xmlns="http://www.w3.org/2000/svg">
<circle cx="60" cy="105" r="60" fill="#FF9900"/>
<path fill-rule="evenodd" clip-rule="evenodd" d="M101.131 15.4903C101.4 15.0217 101.996 14.8609 102.463 15.1311L159.512 48.172C159.978 48.4422 160.138 49.0411 159.869 49.5097C159.6 49.9783 159.004 50.1391 158.537 49.8689L101.488 16.828C101.022 16.5578 100.862 15.9589 101.131 15.4903Z" fill="black"/>
<path fill-rule="evenodd" clip-rule="evenodd" d="M123.502 1.87485C125.63 0.646607 128.043 0 130.5 0C132.957 0 135.37 0.646607 137.498 1.87485C137.499 1.87524 137.499 1.87563 137.5 1.87602L183 27.8813C185.126 29.1091 186.892 30.8745 188.121 33.0004C189.349 35.1264 189.997 37.5381 190 39.9937V92.0063C189.997 94.4619 189.349 96.8736 188.121 98.9995C186.892 101.126 185.126 102.891 183 104.119L182.996 104.121L137.5 130.124C137.5 130.124 137.499 130.124 137.499 130.125C135.371 131.353 132.957 132 130.5 132C128.043 132 125.629 131.353 123.501 130.125C123.501 130.124 123.5 130.124 123.5 130.124L78.0039 104.121L78 104.119C75.8738 102.891 74.1079 101.126 72.8792 98.9995C71.6506 96.8736 71.0025 94.4619 71 92.0063V39.9937C71.0025 37.5381 71.6506 35.1264 72.8792 33.0004C74.1079 30.8745 75.8738 29.1091 78 27.8813L78.0039 27.8791L123.5 1.87602C123.501 1.87563 123.501 1.87524 123.502 1.87485ZM130.5 2.0004C128.394 2.0004 126.324 2.55499 124.5 3.60842L124.496 3.61064L79 29.6137C78.9993 29.6141 78.9986 29.6145 78.998 29.6148C77.1765 30.6672 75.6635 32.18 74.6108 34.0015C73.5577 35.8236 73.0022 37.8907 73 39.9953V92.0047C73.0022 94.1093 73.5577 96.1763 74.6108 97.9985C75.6634 99.8199 77.1763 101.333 78.9977 102.385C78.9984 102.385 78.9992 102.386 79 102.386L124.5 128.392C126.324 129.445 128.394 130 130.5 130C132.606 130 134.676 129.445 136.5 128.392L136.504 128.389L182 102.386C182.001 102.386 182.002 102.385 182.002 102.385C183.824 101.333 185.337 99.8199 186.389 97.9985C187.442 96.1762 187.998 94.109 188 92.0042V39.9958C187.998 37.891 187.442 35.8238 186.389 34.0015C185.337 32.18 183.824 30.6672 182.002 29.6148C182.001 29.6145 182.001 29.6141 182 29.6137L136.504 3.61064L136.5 3.60842C134.676 2.55499 132.606 2.0004 130.5 2.0004Z" fill="black"/>
<path fill-rule="evenodd" clip-rule="evenodd" d="M73.1328 33.4876C73.4058 33.0209 74.0096 32.8614 74.4815 33.1314L130 64.8958L185.518 33.1314C185.99 32.8614 186.594 33.0209 186.867 33.4876C187.14 33.9543 186.979 34.5516 186.507 34.8216L130.494 66.8688C130.188 67.0437 129.812 67.0437 129.506 66.8688L73.493 34.8216C73.0211 34.5516 72.8598 33.9543 73.1328 33.4876Z" fill="black"/>
<path fill-rule="evenodd" clip-rule="evenodd" d="M130 65C130.552 65 131 65.4376 131 65.9775V130.023C131 130.562 130.552 131 130 131C129.448 131 129 130.562 129 130.023V65.9775C129 65.4376 129.448 65 130 65Z" fill="black"/>
</svg>

<svg width="190" height="165" fill="none" xmlns="http://www.w3.org/2000/svg"><circle cx="60" cy="105" r="60" fill="#F90"/><path fill-rule="evenodd" clip-rule="evenodd" d="M101.131 15.49a.973.973 0 011.332-.359l57.049 33.041c.466.27.626.87.357 1.338a.973.973 0 01-1.332.359l-57.049-33.041a.982.982 0 01-.357-1.338z" fill="#000"/><path fill-rule="evenodd" clip-rule="evenodd" d="M123.502 1.875a13.998 13.998 0 0113.996 0l.002.001L183 27.881a14.006 14.006 0 017 12.113v52.012a14.004 14.004 0 01-7 12.113l-.004.002-45.496 26.003-.001.001a14.004 14.004 0 01-13.998 0l-.001-.001-45.496-26.003-.004-.002a14 14 0 01-7-12.113V39.994a14.005 14.005 0 017-12.113l.004-.002L123.5 1.876l.002-.001zM130.5 2c-2.106 0-4.176.555-6 1.608l-.004.003L79 29.614h-.002A12.002 12.002 0 0073 39.996v52.01a12.004 12.004 0 005.998 10.38l.002.001 45.5 26.006a12.003 12.003 0 0012 0l.004-.003L182 102.386l.002-.001A12.004 12.004 0 00188 92.005v-52.01a12.004 12.004 0 00-5.998-10.38l-.002-.001L136.504 3.61l-.004-.003a11.999 11.999 0 00-6-1.608z" fill="#000"/><path fill-rule="evenodd" clip-rule="evenodd" d="M73.133 33.488a.993.993 0 011.349-.357L130 64.896l55.518-31.765a.993.993 0 011.349.357.97.97 0 01-.36 1.334l-56.013 32.047a.996.996 0 01-.988 0L73.493 34.822a.97.97 0 01-.36-1.334z" fill="#000"/><path fill-rule="evenodd" clip-rule="evenodd" d="M130 65a.99.99 0 011 .978v64.045a.99.99 0 01-1 .977.99.99 0 01-1-.977V65.978a.99.99 0 011-.978z" fill="#000"/></svg>
